!!!!SEGMENT: pl-gd--ee-1638--002-019_marenzio-luca--motettorum-pro-festis-totius-anni-in-festo-s-petri-ad-vincula-solve-iubente-deo.krn
!!!cenid: 15xx:1022
!!!COM: Marenzio, Luca
!!!COM-rismID: pe30003955
!!!CDT: ~1553-1599/08/22
!!!CNT: Italian
!!!GTL: Motettorum pro festis totius anni
!!!OTL: In festo S. Petri ad Vincula/Solve iubente Deo
!!!OMV: 019
!!!PDT: 1588
!!!AGN:
!!!YEC: Copyright 2022 Narodowy Instytut Fryderyka Chopina (https://polishscores.org)
!!!YEM: License CC-BY-4.0 (https://creativecommons.org/licenses/by/4.0)
!!!SMS-siglum: PL-GD
!!!SMS-shelfmark: Ee 1638
!!!SMS-variant:
!!!SMS-altvar:
!!!SMS-shelfwork: 002-019 G
!!!NIFC-rismSourceID: 1001202747
!!!NIFC-rismChildID: 990039238
!!!NIFC-islandoraID: pl-gd:57883
!!!URL-pdf-islandora: https://repozytorium.nifc.pl/islandora/object/pl-gd%3A57883/datastream/PDF/view
!!!URL-scan: https://polish.musicsources.pl/pl/lokalizacje/galeria/klocki-introligatorskie/655 @EN{Scan on Polish Music Sources Website} @PL{Skany w portalu Dziedzictwo Muzyki Polskiej w otwartym dostępie}
!!!IIIF: https://repozytorium.nifc.pl/islandora/object/pl-gd%3A57883/datastream/IIIF/view
!!!ONB-nifc: UWAGA: Cantus: s. 625 (prawa), Altus: s. 473 (prawa), Tenor: s. 321 (prawa), Bassus: s. 169 (prawa)
!!!AIN: 1 alto 1 bass 1 soprn 1 tenor
!!!key: a:phr
!!!filter-modern: sic -sq | shed -e "s/TX(.*):t=P:/tx$1:t=P:/LG"| shed -k -e "s/LO:N:vis/LO:n:vis:/L" | shed -e "s/^(\d+[\/\\]right)/$1yy/I;s/^(\d+[\/\\]left)/$1yy/I" | shed -e "s/-//B" | shed -e "s/^custos:/Xcustos:/I" | shed -k -e "s/LO:N:acc/LO:n:acc:/L" | autostem -r |humtr -p | tie -s  | modori -m
**kern	**text	**mod-text	**kern	**text	**mod-text	**kern	**text	**mod-text	**kern	**text	**mod-text
*part4	*	*	*part3	*	*	*part2	*	*	*part1	*	*
*staff4	*	*	*staff3	*	*	*staff2	*	*	*staff1	*	*
*I"BASSVS	*	*	*I"TENOR	*	*	*I"ALTVS	*	*	*I"CANTVS	*	*
*mI"Basso	*	*	*mI"Tenore	*	*	*mI"Alto	*	*	*mI"Soprano	*	*
*I'B	*	*	*I'T	*	*	*I'A	*	*	*I'S	*	*
*Ibass	*	*	*Itenor	*	*	*Ialto	*	*	*Isoprn	*	*
*ICvox	*	*	*ICvox	*	*	*ICvox	*	*	*ICvox	*	*
*clefF3	*	*	*clefC3	*	*	*clefC2	*	*	*clefG2	*	*
*mclefF4	*	*	*mclefGv2	*	*	*mclefG2	*	*	*mclefG2	*	*
*k[b-]	*	*	*k[b-]	*	*	*k[b-]	*	*	*k[b-]	*	*
*a:phr	*	*	*a:phr	*	*	*a:phr	*	*	*a:phr	*	*
*M2/1	*	*	*M2/1	*	*	*M2/1	*	*	*M2/1	*	*
*met(C)	*	*	*met(C)	*	*	*met(C)	*	*	*met(C)	*	*
*mmet(c)	*	*	*mmet(c)	*	*	*mmet(c)	*	*	*mmet(c)	*	*
=1-	=1-	=1-	=1-	=1-	=1-	=1-	=1-	=1-	=1-	=1-	=1-
*xywh-#169:4572,558,3481,770	*	*	*xywh-#321:4504,507,3503,829	*	*	*xywh-#473:4455,522,3592,855	*	*	*xywh-#625:4527,543,3501,791	*	*
!LO:TX:t=P:problem:znaki[BB- B-]	!	!	!	!	!	!LO:TX:t=P:problem:znaki[B- b-]	!	!	!	!	!
0r	.	.	1r	.	.	0r	.	.	0cc\	SOl-	Sol-
.	.	.	0c\	SOl-	Sol-	.	.	.	.	.	.
=2-	=2-	=2-	=2-	=2-	=2-	=2-	=2-	=2-	=2-	=2-	=2-
0r	.	.	.	.	.	0g\	SOl-	Sol-	1g/	-ue	-ve
.	.	.	1G/	-ue	-ve	.	.	.	1b-\	iu-	iu-
=3-	=3-	=3-	=3-	=3-	=3-	=3-	=3-	=3-	=3-	=3-	=3-
0r	.	.	0r	.	.	1d/	-ue	-ve	2a/	-ben-	-ben-
.	.	.	.	.	.	.	.	.	2f/	-te	-te
.	.	.	.	.	.	1f\	iu-	iu-	1a/	De-	De-
=4-	=4-	=4-	=4-	=4-	=4-	=4-	=4-	=4-	=4-	=4-	=4-
0c\	SOl-	Sol-	1r	.	.	2e/	-ben-	-ben-	2g/	-o	-o
.	.	.	.	.	.	2c/	-te	-te	1cc\	Sol-	Sol-
.	.	.	0g\	Sol-	Sol-	1e\	De-	De-	.	.	.
.	.	.	.	.	.	.	.	.	2g/	-lue	-lue
=5-	=5-	=5-	=5-	=5-	=5-	=5-	=5-	=5-	=5-	=5-	=5-
1G\	-ue	-ve	.	.	.	2d/	-o	-o	1r	.	.
.	.	.	.	.	.	2b-\	iu-	iu-	.	.	.
1B-\	iu-	iu-	1d\	-ue	-ve	2f\	-ben-	-ben-	1dd\	iu-	iu-
.	.	.	.	.	.	2g\	-te	-te	.	.	.
=6-	=6-	=6-	=6-	=6-	=6-	=6-	=6-	=6-	=6-	=6-	=6-
2A\	-ben-	-ben-	1f\	iu-	iu-	1a\	De-	De-	2cc\	-ben-	-ben-
2F/	-te	-te	.	.	.	.	.	.	2a/	-te	-te
1A\	De-	De-	2e\	-ben-	-ben-	1a\	-o	-o	1.cc\	De-	De-
.	.	.	2c/	-te	-te	.	.	.	.	.	.
=7-	=7-	=7-	=7-	=7-	=7-	=7-	=7-	=7-	=7-	=7-	=7-
0G\	-o	-o	1e\	De-	De-	1r	.	.	.	.	.
.	.	.	.	.	.	.	.	.	4b-/	.	.
.	.	.	.	.	.	.	.	.	4a/	.	.
*	*	*	*	*	*	*	*	*	*custos:b	*	*
*	*	*	*	*	*	*	*	*	*xywh-#625:4542,1195,3462,675	*	*
!	!	!	!	!	!	!	!	!	!LO:LB:g=original	!	!
.	.	.	1d\	-o	-o	1g\	iu-	iu-	1b-\	.	.
*	*	*	*	*	*	*custos:f	*	*	*	*	*
*	*	*	*	*	*	*xywh-#473:4474,1246,3520,659	*	*	*	*	*
!	!	!	!	!	!	!LO:LB:g=original	!	!	!	!	!
=8-	=8-	=8-	=8-	=8-	=8-	=8-	=8-	=8-	=8-	=8-	=8-
*	*ij	*ij	*	*	*	*	*	*	*	*	*
0d\	Sol-	Sol-	1r	.	.	2f\	-ben-	-ben-	0a/	-o	-o
.	.	.	.	.	.	2d/	-te	-te	.	.	.
*	*	*	*	*ij	*ij	*	*	*	*	*	*
.	.	.	0a\	Sol-	Sol-	1f\	De-	De-	.	.	.
=9-	=9-	=9-	=9-	=9-	=9-	=9-	=9-	=9-	=9-	=9-	=9-
1A\	-ue	-ve	.	.	.	2e/	-o	-o	1r	.	.
.	.	.	.	.	.	1cc\	Sol-	Sol-	.	.	.
1c\	iu-	iu-	1e\	-ue	-ve	.	.	.	1gg\	Sol-	Sol-
.	.	.	.	.	.	2g\	-ue	-ue	.	.	.
=10-	=10-	=10-	=10-	=10-	=10-	=10-	=10-	=10-	=10-	=10-	=10-
2B-\	-ben-	-ben-	1g\	iu-	iu-	1b-\	iu-	iu-	1dd\	-ue	-ve
2G\	-te	-te	.	.	.	.	.	.	.	.	.
*custos:B	*	*	*	*	*	*	*	*	*	*	*
*xywh-#169:4517,1210,3544,668	*	*	*	*	*	*	*	*	*	*	*
!LO:LB:g=original	!	!	!	!	!	!	!	!	!	!	!
1B-\	De-	De-	2f\	-ben-	-ben-	2b-\	-ben-	-ben-	2r	.	.
*	*	*	*custos:d	*	*	*	*	*	*	*	*
*	*	*	*xywh-#321:4504,1222,3419,668	*	*	*	*	*	*	*	*
!	!	!	!LO:LB:g=original	!	!	!	!	!	!	!	!
.	.	.	2d\	-te	-te	2f\	-te	-te	2dd\	iu-	iu-
=11-	=11-	=11-	=11-	=11-	=11-	=11-	=11-	=11-	=11-	=11-	=11-
1A\	-o	-o	1f\	De-	De-	0a\	De-	De-	2cc\	-ben-	-ben-
*	*Xij	*Xij	*	*	*	*	*	*	*	*	*
.	.	.	.	.	.	.	.	.	2a/	-te	-te
1A\	ter-	ter-	1e\	-o	-o	.	.	.	0cc\	De-	De-
*	*	*	*	*Xij	*Xij	*	*	*	*	*	*
=12-	=12-	=12-	=12-	=12-	=12-	=12-	=12-	=12-	=12-	=12-	=12-
2.c\	-ra-	-ra-	2e\	ter-	ter-	2g\	-o	-o	.	.	.
.	.	.	2.g\	-ra-	-ra-	2e/	ter-	ter-	.	.	.
4c\	-rum	-rum	.	.	.	.	.	.	.	.	.
1B-\	Pe-	Pe-	.	.	.	2.d/	-ra-	-ra-	1dd\	-o	-o
.	.	.	4g\	-rum	-rum	.	.	.	.	.	.
.	.	.	1f\	Pe-	Pe-	.	.	.	.	.	.
.	.	.	.	.	.	4d/	-rum	-rum	.	.	.
=13-	=13-	=13-	=13-	=13-	=13-	=13-	=13-	=13-	=13-	=13-	=13-
2A\	-tre	-tre	.	.	.	2c/	Pe-	Pe-	0r	.	.
2G\	ca-	ca-	2e\	-tre	-tre	2g\	-tre	-tre	.	.	.
2.F/	-te-	-te-	2d\	ca-	ca-	1a\	ca-	ca-	.	.	.
.	.	.	2.c/	-te-	-te-	.	.	.	.	.	.
4E/	.	.	.	.	.	.	.	.	.	.	.
=14-	=14-	=14-	=14-	=14-	=14-	=14-	=14-	=14-	=14-	=14-	=14-
1D/	.	.	.	.	.	1f\	-te-	-te-	1r	.	.
!	!	!	!LO:SIC:s=8Bni	!	!	!	!	!	!	!	!
.	.	.	8B-/	.	.	.	.	.	.	.	.
.	.	.	8A/	.	.	.	.	.	.	.	.
!	!	!	!LO:N:acc=#	!	!	!	!	!	!	!	!
.	.	.	2Bn/	.	.	.	.	.	.	.	.
0C/	-nas	-nas	2.c/	-nas	-nas	1e\	-nas	-nas	0gg\	Sol-	Sol-
.	.	.	4d\	.	.	.	.	.	.	.	.
=15-	=15-	=15-	=15-	=15-	=15-	=15-	=15-	=15-	=15-	=15-	=15-
.	.	.	1e\	.	.	0g\	Sol-	Sol-	.	.	.
*	*	*	*	*	*	*custos:d	*	*	*	*	*
*	*	*	*	*	*	*xywh-#473:4514,1782,3435,679	*	*	*	*	*
!	!	!	!	!	!	!LO:LB:g=original	!	!	!	!	!
0G\	Sol-	Sol-	1r	.	.	.	.	.	1dd\	-ue	-ve
=16-	=16-	=16-	=16-	=16-	=16-	=16-	=16-	=16-	=16-	=16-	=16-
.	.	.	1r	.	.	2d/	-ue	-ve	2r	.	.
.	.	.	.	.	.	2b-\	iu-	iu-	1dd\	Sol-	Sol-
1D/	-ue	-ve	0d\	Sol-	Sol-	2a\	-ben-	-ben-	.	.	.
.	.	.	.	.	.	2f\	-te	-te	2a/	-ue	-ve
=17-	=17-	=17-	=17-	=17-	=17-	=17-	=17-	=17-	=17-	=17-	=17-
1d\	iu-	iu-	.	.	.	2.a\	De-	De-	1ff\	iu-	iu-
.	.	.	.	.	.	4b-\	.	.	.	.	.
2c\	-ben-	-ben-	2A/	-ue	-ve	0cc\	.	.	2ee\	-ben-	-ben-
*	*	*	*	*	*	*	*	*	*custos:cc	*	*
*	*	*	*	*	*	*	*	*	*xywh-#625:4511,1754,3408,675	*	*
!	!	!	!	!	!	!	!	!	!LO:LB:g=original	!	!
2A\	-te	-te	2a\	iu-	iu-	.	.	.	2cc\	-te	-te
*	*	*	*custos:g	*	*	*	*	*	*	*	*
*	*	*	*xywh-#321:4550,1783,3327,614	*	*	*	*	*	*	*	*
!	!	!	!LO:LB:g=original	!	!	!	!	!	!	!	!
=18-	=18-	=18-	=18-	=18-	=18-	=18-	=18-	=18-	=18-	=18-	=18-
1c\	De-	De-	2g\	-ben-	-ben-	.	.	.	1dd\	De-	De-
.	.	.	2e\	-te	-te	.	.	.	.	.	.
1G\	-o	-o	1g\	De-	De-	0b-\	-o	-o	0.dd\	-o	-o
=19-	=19-	=19-	=19-	=19-	=19-	=19-	=19-	=19-	=19-	=19-	=19-
1G\	ter-	ter-	1d\	-o	-o	.	.	.	.	.	.
*custos:B	*	*	*	*	*	*	*	*	*	*	*
*xywh-#169:4596,1753,3450,683	*	*	*	*	*	*	*	*	*	*	*
!LO:LB:g=original	!	!	!	!	!	!	!	!	!	!	!
2.B-\	-ra-	-ra-	2d\	ter-	ter-	2r	.	.	.	.	.
.	.	.	2.f\	-ra-	-ra-	2d/	ter-	ter-	.	.	.
4B-\	-rum	-rum	.	.	.	.	.	.	.	.	.
=20-	=20-	=20-	=20-	=20-	=20-	=20-	=20-	=20-	=20-	=20-	=20-
1A\	Pe-	Pe-	.	.	.	2.c/	-ra-	-ra-	0r	.	.
.	.	.	4f\	-rum	-rum	.	.	.	.	.	.
.	.	.	1e\	Pe-	Pe-	.	.	.	.	.	.
.	.	.	.	.	.	4c/	-rum	-rum	.	.	.
2G\	-tre	-tre	.	.	.	2B-/	Pe-	Pe-	.	.	.
2F/	ca-	ca-	2d\	-tre	-tre	2f\	-tre	-tre	.	.	.
=21-	=21-	=21-	=21-	=21-	=21-	=21-	=21-	=21-	=21-	=21-	=21-
2.E-X/	-te-	-te-	2c/	ca-	ca-	1g\	ca-	ca-	1r	.	.
.	.	.	2.B-y/	-te-	-te-	.	.	.	.	.	.
4D/	.	.	.	.	.	.	.	.	.	.	.
1C/	.	.	.	.	.	1e-X\	-te-	-te-	2r	.	.
.	.	.	8A/	.	.	.	.	.	.	.	.
.	.	.	8G/	.	.	.	.	.	.	.	.
.	.	.	2A/	.	.	.	.	.	2cc\	Qui	Qui
=22-	=22-	=22-	=22-	=22-	=22-	=22-	=22-	=22-	=22-	=22-	=22-
2BB-/	-nas	-nas	1B-/	-nas	-nas	1d/	-nas	-nas	1ff\	fa-	fa-
2BB-/	Qui	Qui	.	.	.	.	.	.	.	.	.
1B-\	fa-	fa-	2r	.	.	2r	.	.	1.dd\	-cis	-cis
.	.	.	2d\	Qui	Qui	2g\	Qui	Qui	.	.	.
=23-	=23-	=23-	=23-	=23-	=23-	=23-	=23-	=23-	=23-	=23-	=23-
2G\	-cis	-cis	1g\	fa-	fa-	1b-\	fa-	fa-	.	.	.
2G\	vt	ut	.	.	.	.	.	.	2dd\	vt	ut
2.A\	pa-	pa-	2e\	-cis	-cis	2a\	-cis	-cis	2.cc#X\	pa-	pa-
*	*	*	*	*	*	*custos:a	*	*	*	*	*
*	*	*	*	*	*	*xywh-#473:4481,2337,3415,672	*	*	*	*	*
.	.	.	2e\	vt	ut	2a\	vt	ut	.	.	.
*	*	*	*custos:f	*	*	*	*	*	*	*	*
*	*	*	*xywh-#321:4527,2336,3480,630	*	*	*	*	*	*	*	*
!	!	!	!LO:LB:g=original	!	!	!	!	!	!	!	!
4A\	-te-	-te-	.	.	.	.	.	.	4cc#\	-te-	-te-
=24-	=24-	=24-	=24-	=24-	=24-	=24-	=24-	=24-	=24-	=24-	=24-
1D/	-ant	-ant	2.f\	pa-	pa-	2.a\	pa-	pa-	1dd\	-ant	-ant
.	.	.	4f\	-te-	-te-	4a\	-te-	-te-	.	.	.
2r	.	.	1d\	-ant	-ant	1f\	-ant	-ant	2r	.	.
*	*	*	*	*	*	*	*	*	*	*ij	*ij
2D/	Qui	Qui	.	.	.	.	.	.	2a/	Qui	Qui
=25-	=25-	=25-	=25-	=25-	=25-	=25-	=25-	=25-	=25-	=25-	=25-
*	*	*	*	*	*	*	*ij	*ij	*	*	*
1d\	fa-	fa-	2r	.	.	1a\	Qui	Qui	1ff\	fa-	fa-
*custos:B	*	*	*	*	*	*	*	*	*	*	*
*xywh-#169:4525,2303,3489,683	*	*	*	*	*	*	*	*	*	*	*
!LO:LB:g=original	!	!	!	!	!	!	!	!	!	!	!
*	*	*	*	*ij	*ij	*	*	*	*	*	*
.	.	.	1d\	qui	qui	.	.	.	.	.	.
2B-\	-cis	-cis	.	.	.	1b-\	fa-	fa-	2ff\	-cis	-cis
2B-\	vt	ut	2g\	fa-	fa-	.	.	.	2dd\	vt	ut
=26-	=26-	=26-	=26-	=26-	=26-	=26-	=26-	=26-	=26-	=26-	=26-
2.c\	pa-	pa-	2e\	-cis	-cis	2g\	-cit	-cit	2.ccny\	pa-	pa-
.	.	.	2e\	vt	ut	2g\	vt	ut	.	.	.
4c\	-te-	-te-	.	.	.	.	.	.	4cc\	-te-	-te-
*	*	*	*	*	*	*	*	*	*custos:cc	*	*
*	*	*	*	*	*	*	*	*	*xywh-#625:4527,2251,3509,722	*	*
!	!	!	!	!	!	!	!	!	!LO:LB:g=original	!	!
1F\	-ant	-ant	2.f\	pa-	pa-	2.a\	pa-	pa-	1cc\	-ant	-ant
*	*	*	*	*	*	*	*	*	*	*Xij	*Xij
.	.	.	4f\	-te-	-te-	4a\	-te-	-te-	.	.	.
=27-	=27-	=27-	=27-	=27-	=27-	=27-	=27-	=27-	=27-	=27-	=27-
2BB-/	coe-	coe-	1d\	-ant	-ant	0f\	-ant	-ant	2b-/	coe-	coe-
*	*	*	*	*Xij	*Xij	*	*Xij	*Xij	*	*	*
2.B-\	-leſ-	-les-	.	.	.	.	.	.	2.dd\	-leſ-	-les-
.	.	.	1r	.	.	.	.	.	.	.	.
4B-\	-ti-	-ti-	.	.	.	.	.	.	4dd\	-ti-	-ti-
2A\	-a	-a	.	.	.	.	.	.	2cc\	-a	-a
=28-	=28-	=28-	=28-	=28-	=28-	=28-	=28-	=28-	=28-	=28-	=28-
1G\	re-	re-	2d\	coe-	coe-	2B-/	coe-	coe-	1b-\	re-	re-
.	.	.	2.g\	-leſ-	-les-	2.b-\	-leſ-	-les-	.	.	.
1D/	-gna	-gna	.	.	.	.	.	.	2dd\	-gna	-gna
.	.	.	4g\	-ti-	-ti-	4b-\	-ti-	-ti-	.	.	.
.	.	.	2f\	-a	-a	2a\	-a	-a	1dd\	be-	be-
=29-	=29-	=29-	=29-	=29-	=29-	=29-	=29-	=29-	=29-	=29-	=29-
*lig	*	*	*	*	*	*	*	*	*	*	*
1Eny/	be-	be-	1e\	re-	re-	1g\	re-	re-	.	.	.
.	.	.	.	.	.	.	.	.	4cc\	.	.
.	.	.	.	.	.	.	.	.	4b-/	.	.
1F\	.	.	2c/	-gna	-gna	2f\	-gna	-gna	4a/	.	.
.	.	.	.	.	.	.	.	.	4b-/	.	.
.	.	.	2f\	be-	be-	2a\	be-	be-	4cc\	.	.
.	.	.	.	.	.	.	.	.	4a/	.	.
*Xlig	*	*	*	*	*	*	*	*	*	*	*
=30-	=30-	=30-	=30-	=30-	=30-	=30-	=30-	=30-	=30-	=30-	=30-
!	!	!	!	!	!	!	!	!	!LO:N:acc=#	!	!
0G\	-a-	-a-	2e\	-a-	-a-	0g\	-a-	-a-	2bn/	.	.
.	.	.	4d\	.	.	.	.	.	1cc\	-a-	-a-
.	.	.	4c/	.	.	.	.	.	.	.	.
*	*	*	*custos:d	*	*	*	*	*	*	*	*
*	*	*	*xywh-#321:4566,2843,3427,691	*	*	*	*	*	*	*	*
!	!	!	!LO:LB:g=original	!	!	!	!	!	!	!	!
.	.	.	1d\	.	.	.	.	.	.	.	.
!	!	!	!	!	!	!	!	!	!LO:N:acc=#	!	!
.	.	.	.	.	.	.	.	.	2bn/	.	.
=31-	=31-	=31-	=31-	=31-	=31-	=31-	=31-	=31-	=31-	=31-	=31-
2C/	-tis	-tis	1c\	-tis	-tis	2g\	-tis	-tis	1cc\	-tis	-tis
*	*	*	*	*	*	*custos:e	*	*	*	*	*
*	*	*	*	*	*	*xywh-#473:4494,2879,3383,685	*	*	*	*	*
!	!	!	!	!	!	!LO:LB:g=original	!	!	!	!	!
2C/	Qui	Qui	.	.	.	2eny/	Qui	Qui	.	.	.
1F\	fa-	fa-	2c/	Qui	Qui	1a\	fa-	fa-	2r	.	.
.	.	.	1f\	fa-	fa-	.	.	.	1a/	Qui	Qui
*	*	*	*	*	*	*	*	*	*custos:ff	*	*
*	*	*	*	*	*	*	*	*	*xywh-#625:4511,2864,3447,644	*	*
!	!	!	!	!	!	!	!	!	!LO:LB:g=original	!	!
=32-	=32-	=32-	=32-	=32-	=32-	=32-	=32-	=32-	=32-	=32-	=32-
2D/	-cis	-cis	.	.	.	1f\	-cis	-cis	.	.	.
2D/	qui	qui	1d\	-cis	-cis	.	.	.	1ff\	fa-	fa-
1B-\	fa-	fa-	.	.	.	2r	.	.	.	.	.
*custos:G	*	*	*	*	*	*	*	*	*	*	*
*xywh-#169:4557,2853,3544,660	*	*	*	*	*	*	*	*	*	*	*
!LO:LB:g=original	!	!	!	!	!	!	!	!	!	!	!
.	.	.	2d\	qui	qui	2f\	Qui	Qui	1dd\	-cis	-cis
=33-	=33-	=33-	=33-	=33-	=33-	=33-	=33-	=33-	=33-	=33-	=33-
2G\	-cis	-cis	1g\	fa-	fa-	1b-\	fa-	fa-	.	.	.
2G\	vt	ut	.	.	.	.	.	.	2dd\	vt	ut
2.A\	pa-	pa-	2e\	-cis	-cis	2a\	-cis	-cis	2.cc#X\	pa-	pa-
.	.	.	2e\	vt	ut	2a\	vt	ut	.	.	.
4A\	-te-	-te-	.	.	.	.	.	.	4cc#\	-te-	-te-
=34-	=34-	=34-	=34-	=34-	=34-	=34-	=34-	=34-	=34-	=34-	=34-
1D/	-ant	-ant	2.f\	pa-	pa-	2.a\	pa-	pa-	1dd\	-ant	-ant
.	.	.	4f\	-te-	-te-	4a\	-te-	-te-	.	.	.
2r	.	.	1d\	-ant	-ant	1f\	-ant	-ant	2r	.	.
*	*	*	*	*	*	*	*	*	*	*ij	*ij
2D/	qui	qui	.	.	.	.	.	.	2a/	qui	qui
=35-	=35-	=35-	=35-	=35-	=35-	=35-	=35-	=35-	=35-	=35-	=35-
*	*	*	*	*	*	*	*ij	*ij	*	*	*
1d\	fa-	fa-	2r	.	.	1a\	Qui	Qui	1ff\	fa-	fa-
.	.	.	1d\	qui	qui	.	.	.	.	.	.
2B-\	-cis	-cis	.	.	.	1b-\	fa-	fa-	2ff\	-cis	-cis
2B-\	vt	ut	2g\	fa-	fa-	.	.	.	2dd\	vt	ut
=36-	=36-	=36-	=36-	=36-	=36-	=36-	=36-	=36-	=36-	=36-	=36-
2.c\	pa-	pa-	2e\	-cis	-cis	2g\	-cit	-cit	2.ccny\	pa-	pa-
.	.	.	2e\	vt	ut	2g\	vt	ut	.	.	.
4c\	-te-	-te-	.	.	.	.	.	.	4cc\	-te-	-te-
1F\	-ant	-ant	2.f\	pa-	pa-	2.a\	pa-	pa-	1cc\	-ant	-ant
*	*	*	*	*	*	*	*	*	*	*Xij	*Xij
.	.	.	4f\	-te-	-te-	4a\	-te-	-te-	.	.	.
=37-	=37-	=37-	=37-	=37-	=37-	=37-	=37-	=37-	=37-	=37-	=37-
2BB-/	coe-	coe-	1d\	-ant	-ant	0f\	-ant	-ant	2b-y/	coe-	coe-
*	*	*	*	*	*	*	*Xij	*Xij	*	*	*
2.B-\	-leſ-	-les-	.	.	.	.	.	.	2.dd\	-leſ-	-les-
.	.	.	1r	.	.	.	.	.	.	.	.
*	*	*	*custos:d	*	*	*	*	*	*	*	*
*	*	*	*xywh-#321:4581,3396,3311,691	*	*	*	*	*	*	*	*
!	!	!	!LO:LB:g=original	!	!	!	!	!	!	!	!
4B-\	-ti-	-ti-	.	.	.	.	.	.	4dd\	-ti-	-ti-
2A\	-a	-a	.	.	.	.	.	.	2cc\	-a	-a
=38-	=38-	=38-	=38-	=38-	=38-	=38-	=38-	=38-	=38-	=38-	=38-
1G\	re-	re-	2d\	coe-	coe-	2B-/	coe-	coe-	1b-\	re-	re-
*	*	*	*	*	*	*custos:b	*	*	*	*	*
*	*	*	*	*	*	*xywh-#473:4487,3441,3553,659	*	*	*	*	*
!	!	!	!	!	!	!LO:LB:g=original	!	!	!	!	!
.	.	.	2.g\	-leſ-	-les-	2.b-\	-leſ-	-les-	.	.	.
1D/	-gna	-gna	.	.	.	.	.	.	2dd\	-gna	-gna
*custos:E	*	*	*	*	*	*	*	*	*custos:dd	*	*
*xywh-#169:4612,3379,3434,668	*	*	*	*	*	*	*	*	*xywh-#625:4511,3392,3517,644	*	*
!LO:LB:g=original	!	!	!	!	!	!	!	!	!LO:LB:g=original	!	!
.	.	.	4g\	-ti-	-ti-	4b-\	-ti-	-ti-	.	.	.
.	.	.	2f\	-a	-a	2a\	-a	-a	1dd\	be-	be-
=39-	=39-	=39-	=39-	=39-	=39-	=39-	=39-	=39-	=39-	=39-	=39-
*lig	*	*	*	*	*	*	*	*	*	*	*
1E/	be-	be-	1e\	re-	re-	1g\	re-	re-	.	.	.
.	.	.	.	.	.	.	.	.	4cc\	-a-	-a-
.	.	.	.	.	.	.	.	.	4b-/	.	.
1F\	.	.	2c/	-gna	-gna	2f\	-gna	-gna	4a/	.	.
.	.	.	.	.	.	.	.	.	4b-/	.	.
.	.	.	2f\	be-	be-	2a\	be-	be-	4cc\	.	.
.	.	.	.	.	.	.	.	.	4a/	.	.
*Xlig	*	*	*	*	*	*	*	*	*	*	*
=40-	=40-	=40-	=40-	=40-	=40-	=40-	=40-	=40-	=40-	=40-	=40-
!	!	!	!	!	!	!	!	!	!LO:N:acc=#	!	!
1G\	-a-	-a-	2e\	-a-	-a-	0g\	-a-	-a-	2bn/	.	.
.	.	.	4d\	.	.	.	.	.	1cc\	.	.
.	.	.	4c\	.	.	.	.	.	.	.	.
1G\	-tis	-tis	1d\	.	.	.	.	.	.	.	.
!	!	!	!	!	!	!	!	!	!LO:N:acc=#	!	!
.	.	.	.	.	.	.	.	.	2bn/	.	.
=41-	=41-	=41-	=41-	=41-	=41-	=41-	=41-	=41-	=41-	=41-	=41-
2C/	coe-	coe-	1c\	-tis	-tis	0g\	-tis	-tis	2cc\	-tis	-tis
2.c\	-leſ-	-les-	.	.	.	.	.	.	2g/	coe-	coe-
.	.	.	2r	.	.	.	.	.	2.gg\	-leſ-	-les-
4c\	-ti-	-ti-	.	.	.	.	.	.	.	.	.
2B-\	-a	-a	2d\	coe-	coe-	.	.	.	.	.	.
.	.	.	.	.	.	.	.	.	4ff\	-ti-	-ti-
=42-	=42-	=42-	=42-	=42-	=42-	=42-	=42-	=42-	=42-	=42-	=42-
1A\	re-	re-	2.a\	-leſ-	-les-	2c/	coe-	coe-	2ff\	-a	-a
.	.	.	.	.	.	2.cc\	-leſ-	-les-	2ee\	re-	re-
.	.	.	4a\	-ti-	-ti-	.	.	.	.	.	.
0D/	-gna	-gna	2f#X\	-a	-a	.	.	.	1dd\	-gna	-gna
.	.	.	.	.	.	4cc\	-ti-	-ti-	.	.	.
.	.	.	2.g\	re-	re-	2b-\	-a	-a	.	.	.
=43-	=43-	=43-	=43-	=43-	=43-	=43-	=43-	=43-	=43-	=43-	=43-
.	.	.	.	.	.	2.a\	re-	re-	1.dd\	be-	be-
.	.	.	8fny\	.	.	.	.	.	.	.	.
.	.	.	8e\	.	.	.	.	.	.	.	.
*	*	*	*custos:f	*	*	*	*	*	*	*	*
*	*	*	*xywh-#321:4535,3927,3442,699	*	*	*	*	*	*	*	*
!	!	!	!LO:LB:g=original	!	!	!	!	!	!	!	!
.	.	.	2f\	.	.	.	.	.	.	.	.
.	.	.	.	.	.	8g\	.	.	.	.	.
.	.	.	.	.	.	8f\	.	.	.	.	.
*lig	*	*	*	*	*	*	*	*	*	*	*
1E/	be-	be-	2.e\	-gna	-gna	1g\	.	.	.	.	.
.	.	.	.	.	.	.	.	.	4cc\	.	.
.	.	.	4d\	.	.	.	.	.	4b-y/	.	.
*	*	*	*	*	*	*	*	*	*custos:a	*	*
*	*	*	*	*	*	*	*	*	*xywh-#625:4550,3889,3555,698	*	*
!	!	!	!	!	!	!	!	!	!LO:LB:g=original	!	!
=44-	=44-	=44-	=44-	=44-	=44-	=44-	=44-	=44-	=44-	=44-	=44-
1F\	.	.	2c/	.	.	2f\	-gna	-gna	4a/	.	.
.	.	.	.	.	.	.	.	.	4b-/	.	.
.	.	.	2f\	be-	be-	2a\	be-	be-	4cc\	.	.
.	.	.	.	.	.	.	.	.	4a/	.	.
*Xlig	*	*	*	*	*	*	*	*	*	*	*
!	!	!	!	!	!	!	!	!	!LO:N:acc=#	!	!
0G\	-a-	-a-	2e\	-a-	-a-	0g\	-a-	-a-	2bn/	.	.
.	.	.	4d\	.	.	.	.	.	1cc\	-a-	-a-
.	.	.	4c\	.	.	.	.	.	.	.	.
=45-	=45-	=45-	=45-	=45-	=45-	=45-	=45-	=45-	=45-	=45-	=45-
.	.	.	1d\	.	.	.	.	.	.	.	.
!	!	!	!	!	!	!	!	!	!LO:N:acc=#	!	!
.	.	.	.	.	.	.	.	.	2bn/	.	.
1C/l	-tis.	-tis.	1c\l	-tis.	-tis.	1g\l	-tis.	-tis.	1cc\l	-tis.	-tis.
==	==	==	==	==	==	==	==	==	==	==	==
*-	*-	*-	*-	*-	*-	*-	*-	*-	*-	*-	*-
!!!system-decoration: [*]
!!!ENC: Andrzej Gręziak
!!!END: 2022-07-02
!!!ENC: Julita Ruszuk
!!!END: 2022-07-22
!!!ENC-iiif: Lidia Bialucha
!!!END-iiif: 2022-09-10
!!!EED: Andrzej Borzym
!!!EEV: 2023-11-02
!!!ENC-modern: Andrzej Borzym
!!!END-modern: 2023-11-02
!!!RDF**kern: i = editorial accidental
!!LO:MO:ori
!!!RDF**kern: l = terminal long
